public/alergenos/cacahuetes.svg

<?xml version="1.0" encoding="UTF-8" standalone="no"?>
<!-- Created with Inkscape (http://www.inkscape.org/) -->

<svg
   xmlns:dc="http://purl.org/dc/elements/1.1/"
   xmlns:cc="http://creativecommons.org/ns#"
   xmlns:rdf="http://www.w3.org/1999/02/22-rdf-syntax-ns#"
   xmlns:svg="http://www.w3.org/2000/svg"
   xmlns="http://www.w3.org/2000/svg"
   xmlns:sodipodi="http://sodipodi.sourceforge.net/DTD/sodipodi-0.dtd"
   xmlns:inkscape="http://www.inkscape.org/namespaces/inkscape"
   width="262.20471"
   height="372.04724"
   id="svg4209"
   version="1.1"
   inkscape:version="0.48.5 r10040"
   sodipodi:docname="IconoAlergenoCacahuete-Peanuts.svg">
  <defs
     id="defs4211" />
  <sodipodi:namedview
     id="base"
     pagecolor="#ffffff"
     bordercolor="#666666"
     borderopacity="1.0"
     inkscape:pageopacity="0.0"
     inkscape:pageshadow="2"
     inkscape:zoom="0.14164093"
     inkscape:cx="584.86057"
     inkscape:cy="837.08817"
     inkscape:document-units="px"
     inkscape:current-layer="layer1"
     showgrid="false"
     inkscape:window-width="1280"
     inkscape:window-height="924"
     inkscape:window-x="0"
     inkscape:window-y="28"
     inkscape:window-maximized="1" />
  <metadata
     id="metadata4214">
    <rdf:RDF>
      <cc:Work
         rdf:about="">
        <dc:format>image/svg+xml</dc:format>
        <dc:type
           rdf:resource="http://purl.org/dc/dcmitype/StillImage" />
        <dc:title></dc:title>
      </cc:Work>
    </rdf:RDF>
  </metadata>
  <g
     inkscape:label="Capa 1"
     inkscape:groupmode="layer"
     id="layer1"
     transform="translate(0,-680.31494)">
    <g
       id="g4887"
       transform="matrix(5.5766335,0,0,5.5766335,-1133.1393,-1008.2672)">
      <text
         sodipodi:linespacing="125%"
         id="text4050"
         y="361.69162"
         x="208.15565"
         style="font-size:15px;font-style:normal;font-weight:normal;line-height:125%;letter-spacing:0px;word-spacing:0px;fill:#000000;fill-opacity:1;stroke:none;font-family:Sans"
         xml:space="preserve"><tspan
           style="font-size:5.5px"
           y="361.69162"
           x="208.15565"
           id="tspan4052"
           sodipodi:role="line">CACAHUETES</tspan></text>
      <g
         id="g4870">
        <path
           sodipodi:type="arc"
           style="fill:#c27344;fill-opacity:1;stroke:#c27344;stroke-width:3;stroke-linecap:round;stroke-linejoin:round;stroke-miterlimit:4;stroke-opacity:1;stroke-dasharray:none;stroke-dashoffset:0"
           id="path3230-0"
           sodipodi:cx="21.573027"
           sodipodi:cy="29.287827"
           sodipodi:rx="18.363815"
           sodipodi:ry="18.720394"
           d="m 39.936842,29.287827 c 0,10.338988 -8.22176,18.720394 -18.363815,18.720394 -10.142055,0 -18.3638157,-8.381406 -18.3638157,-18.720394 0,-10.338989 8.2217607,-18.720395 18.3638157,-18.720395 10.142055,0 18.363815,8.381406 18.363815,18.720395 z"
           transform="matrix(1.0403305,0,0,1.0205147,204.26031,301.29916)" />
        <g
           id="g4171"
           transform="translate(25.716744,302.98604)">
          <g
             id="g4128">
            <path
               style="fill:#ffffff;stroke:#ffffff;stroke-width:0.05;stroke-linecap:round;stroke-linejoin:round;stroke-miterlimit:4;stroke-opacity:1;stroke-dasharray:none"
               d="m 207.50668,28.541766 0.45282,-0.984986 0.57553,-0.846797 0.55156,-0.535796 0.58307,-0.457003 0.70914,-0.36245 0.94552,-0.283657 0.92977,-0.189104 0.69338,-0.09455 0.66187,-0.04728 0.77217,0.07879 0.47277,0.141828 0.29941,0.204863 0.2679,0.25214 0.17335,0.252139 0.0945,0.409727 0.0158,0.409726 -0.0394,0.165467 -4.87338,2.769593 5.01915,-2.505635 0.13789,0.145768 0.16546,0.153648 0.20093,0.263958 0.14182,0.267898 0.0788,0.208803 0.0551,0.2482 0.0236,0.256079 -0.0551,0.358511 -0.0709,0.248199 -0.12213,0.287597 -0.15365,0.271838 -0.19304,0.287596 -0.17335,0.224562 -0.30335,0.330933 -0.2088,0.189104 -0.42943,0.37033 -0.39003,0.295476 -0.6461,0.413666 -0.57126,0.323053 -0.49246,0.2482 -0.58701,0.256079 -0.67368,0.232441 -0.5161,0.118191 -0.25608,0.02364 -0.2482,0.01576 -0.31911,-0.02364 -0.24426,-0.03546 -0.26002,-0.05909 -0.22456,-0.07879 -0.18911,-0.07879 -0.42154,-0.24426 -0.2482,-0.185165 -0.29942,-0.275777 -0.19698,-0.228502 -0.24032,-0.299415 -0.25214,-0.409727 -0.14183,-0.271838 -0.0749,-0.193044 -0.0591,-0.224561 -0.0276,-0.200924 -0.0276,-0.307295 0.0118,-0.311234 0.0355,-0.36639 0.0906,-0.374537 z"
               id="path4108"
               inkscape:connector-curvature="0"
               sodipodi:nodetypes="ccccccccccccccccccccccccccccccccccccccccccccccccccccccccccccccccc" />
            <path
               style="fill:#ffffff;stroke:#ffffff;stroke-width:0.05;stroke-linecap:round;stroke-linejoin:round;stroke-miterlimit:4;stroke-opacity:1;stroke-dasharray:none"
               d="m 203.74167,41.816475 -0.99414,-0.663576 -0.56781,-0.879829 -0.29986,-0.729142 -0.24749,-0.743558 -0.20688,-0.769057 -0.0806,-0.983856 -0.0847,-0.948767 0.0519,-0.744747 0.12275,-0.735337 0.30031,-0.61385 0.23714,-0.432887 0.26271,-0.250202 0.30238,-0.209541 0.2827,-0.117063 0.42043,-0.0071 0.40404,0.06984 0.15364,0.07298 1.61626,6.186926 -1.32774,-6.274552 0.15566,-0.213899 0.21596,-0.145474 0.30001,-0.188452 0.26031,-0.05169 0.25187,-0.03361 0.23862,-0.0022 0.30225,0.07711 0.30793,0.175401 0.2905,0.167891 0.17776,0.179326 0.23389,0.206874 0.24111,0.248681 0.18355,0.216301 0.26054,0.365597 0.14149,0.243592 0.27282,0.497116 0.20781,0.442996 0.34822,0.686811 0.24393,0.719746 0.0934,0.517716 0.11265,0.596209 0.0246,0.691684 0.008,0.529397 -0.0302,0.255391 -0.0363,0.246043 -0.0895,0.307198 -0.0855,0.231526 -0.11193,0.242022 -0.12381,0.203238 -0.11643,0.168565 -0.32667,0.361455 -0.17028,0.25109 -0.23831,0.23545 -0.24889,0.207596 -0.32725,0.235223 -0.39074,0.145695 -0.35791,0.05088 -0.29815,0.03307 -0.23195,0.02669 -0.26477,7.95e-4 -0.29069,-0.0057 -0.28632,-0.02945 -0.30411,-0.0485 -0.45684,-0.135335 z"
               id="path4108-5"
               inkscape:connector-curvature="0"
               sodipodi:nodetypes="ccccccccccccccccccccccccccccccccccccccccccccccccccccccccccccccccc" />
          </g>
          <path
             sodipodi:nodetypes="cccccccccccccccccccccccccccccccccccccccccccc"
             inkscape:connector-curvature="0"
             id="path4151"
             d="m 194.73822,24.089918 0.76472,-1.911828 0.88194,-1.657529 0.96007,-1.654967 0.85629,-1.270036 1.21497,-1.214977 0.91845,-0.627021 1.37381,-0.423997 1.60563,-0.210716 1.70942,0.161395 1.44938,0.796107 1.1759,0.920999 0.6507,1.10095 0.20303,1.18934 -0.0442,1.402619 -0.24209,1.238661 -0.58796,1.175909 -0.58026,0.660961 -1.10033,0.8038 -0.96326,0.739094 -1.46474,1.043326 -1.43595,1.124023 -0.73654,1.027946 -0.99913,1.787547 -0.82747,2.011084 -0.9447,1.457067 -1.09777,0.970322 -1.1996,0.845429 -1.9957,0.671215 -1.9957,0.320225 -1.8343,0.09608 -1.4987,-0.166522 -0.95495,-0.28116 -0.74422,-0.489313 -0.66863,-0.897925 -0.34075,-2.455588 0.34331,-1.441685 0.74933,-1.704287 0.84031,-1.20985 1.32962,-1.405183 1.74847,-1.165653 1.17398,-0.601386 1.14256,-0.408613 z"
             style="fill:none;stroke:#ffffff;stroke-width:1.89999998;stroke-linecap:round;stroke-linejoin:round;stroke-miterlimit:4;stroke-opacity:1;stroke-dasharray:none" />
          <path
             inkscape:connector-curvature="0"
             id="path4153"
             d="m 198.78539,17.948081 1.67938,0.309359 1.94455,0.618718 1.72357,0.883884 1.81196,1.281631 1.63518,1.325825 0,0"
             style="fill:none;stroke:#ffffff;stroke-width:0.40000001;stroke-linecap:round;stroke-linejoin:round;stroke-miterlimit:4;stroke-opacity:1;stroke-dasharray:none" />
          <path
             inkscape:connector-curvature="0"
             id="path4155"
             d="m 196.70827,20.953284 2.34229,0.176777 1.85615,0.618719 1.85616,1.414213 1.72357,1.856155"
             style="fill:none;stroke:#ffffff;stroke-width:0.40000001;stroke-linecap:butt;stroke-linejoin:miter;stroke-miterlimit:4;stroke-opacity:1;stroke-dasharray:none" />
          <path
             inkscape:connector-curvature="0"
             id="path4157"
             d="m 195.02889,24.798178 1.01646,0 0.7955,0.22097 1.5026,0.751301 1.01647,0.662913 0.61872,0.618718 1.06066,1.149049"
             style="fill:none;stroke:#ffffff;stroke-width:0.40000001;stroke-linecap:butt;stroke-linejoin:miter;stroke-miterlimit:4;stroke-opacity:1;stroke-dasharray:none" />
          <path
             inkscape:connector-curvature="0"
             id="path4159"
             d="m 189.68139,27.05208 1.45841,0.220971 1.81196,0.486136 1.63519,0.662913 1.41421,1.016466 0.97227,1.016466 0.48614,0.795495 0.97227,1.811961"
             style="fill:none;stroke:#ffffff;stroke-width:0.40000001;stroke-linecap:butt;stroke-linejoin:miter;stroke-miterlimit:4;stroke-opacity:1;stroke-dasharray:none" />
          <path
             inkscape:connector-curvature="0"
             id="path4161"
             d="m 187.29491,29.924702 2.56326,0.574524 1.32583,0.53033 1.59099,0.839689 1.32582,1.193243 0.70711,0.795495 1.23743,1.546796"
             style="fill:none;stroke:#ffffff;stroke-width:0.40000001;stroke-linecap:butt;stroke-linejoin:miter;stroke-miterlimit:4;stroke-opacity:1;stroke-dasharray:none" />
          <path
             inkscape:connector-curvature="0"
             id="path4163"
             d="m 200.64155,16.445479 -0.0884,1.723572 -0.66291,1.502602 -1.01647,2.077127 -2.12132,3.270368 -3.13778,3.049398 -1.67938,1.546796 -1.59099,1.149049 -1.63519,1.325825 -0.66291,0.574524 -1.32583,0.928078 0.22097,-0.176777"
             style="fill:none;stroke:#ffffff;stroke-width:0.40000001;stroke-linecap:butt;stroke-linejoin:miter;stroke-miterlimit:4;stroke-opacity:1;stroke-dasharray:none" />
          <path
             inkscape:connector-curvature="0"
             id="path4165"
             d="m 187.91363,35.62575 0.7513,-0.397747 3.35875,-2.607457 1.85616,-1.635184 1.5026,-1.546796 1.98874,-2.298097 1.37002,-1.90035 1.41421,-1.856155 1.14905,-2.077126 0.48614,-1.06066 0.66291,-1.458408 0.53033,-1.90035 0.22097,-1.370019"
             style="fill:none;stroke:#ffffff;stroke-width:0.40000001;stroke-linecap:butt;stroke-linejoin:miter;stroke-miterlimit:4;stroke-opacity:1;stroke-dasharray:none" />
          <path
             inkscape:connector-curvature="0"
             id="path4167"
             d="m 205.37033,15.782566 -0.66292,1.944544 -0.7513,2.386485 -0.83969,2.342291 -1.37002,2.121321 -1.19324,1.546796 -0.7513,0.928077 -1.23744,1.90035 -0.88388,1.104854 -0.66291,0.751301 -1.23744,1.37002 -1.23744,0.928077 -3.8007,3.137787"
             style="fill:none;stroke:#ffffff;stroke-width:0.40000001;stroke-linecap:butt;stroke-linejoin:miter;stroke-miterlimit:4;stroke-opacity:1;stroke-dasharray:none" />
          <path
             inkscape:connector-curvature="0"
             id="path4169"
             d="m 206.65196,16.710644 -0.39775,2.032932 -0.17678,1.193242 -0.35355,1.281631 -0.70711,1.944544 -0.61872,1.723573"
             style="fill:none;stroke:#ffffff;stroke-width:0.40000001;stroke-linecap:butt;stroke-linejoin:miter;stroke-miterlimit:4;stroke-opacity:1;stroke-dasharray:none" />
        </g>
      </g>
    </g>
  </g>
</svg>

<svg xmlns="http://www.w3.org/2000/svg" xmlns:xlink="http://www.w3.org/1999/xlink" width="80" zoomAndPan="magnify" viewBox="0 0 60 67.92" height="80" preserveAspectRatio="xMidYMid meet" version="1.0"><path stroke-linecap="round" transform="matrix(1.325997, 0, 0, 1.304315, 1.394222, -7.94068)" fill-opacity="1" fill="#c27344" fill-rule="nonzero" stroke-linejoin="round" d="M 39.937758 29.289239 C 39.937758 39.627518 31.71576 48.007155 21.573037 48.007155 C 11.430313 48.007155 3.208315 39.627518 3.208315 29.289239 C 3.208315 18.947964 11.430313 10.568328 21.573037 10.568328 C 31.71576 10.568328 39.937758 18.947964 39.937758 29.289239 Z M 39.937758 29.289239 " stroke="#c27344" stroke-width="3" stroke-opacity="1" stroke-miterlimit="4"/><path stroke-linecap="round" transform="matrix(1.274592, 0, 0, 1.278095, -226.175956, -5.784675)" fill-opacity="1" fill="#ffffff" fill-rule="nonzero" stroke-linejoin="round" d="M 207.505279 28.54246 L 207.958856 27.555273 L 208.535021 26.708677 L 209.086668 26.173823 L 209.668962 25.718434 L 210.379974 25.354733 L 211.323903 25.070497 L 212.255574 24.881006 L 212.948198 24.786261 L 213.610174 24.740416 L 214.38248 24.81988 L 214.854445 24.96047 L 215.154786 25.165243 L 215.421416 25.418916 L 215.596104 25.669533 L 215.688045 26.079078 L 215.706434 26.488623 L 215.666592 26.653663 L 210.793709 29.425732 L 215.810634 26.919562 L 215.948545 27.063208 L 216.114039 27.21908 L 216.31631 27.481922 L 216.457287 27.750877 L 216.536969 27.958706 L 216.592134 28.206267 L 216.616651 28.462996 L 216.561487 28.820584 L 216.487934 29.071201 L 216.36841 29.358494 L 216.21211 29.630505 L 216.019034 29.917798 L 215.84741 30.140908 L 215.544004 30.470989 L 215.335604 30.66048 L 214.906545 31.030293 L 214.514263 31.326754 L 213.870674 31.742412 L 213.297574 32.063324 L 212.804157 32.310885 L 212.218798 32.567614 L 211.544562 32.799894 L 211.029692 32.91909 L 210.772256 32.94354 L 210.524015 32.958822 L 210.205286 32.934371 L 209.960109 32.897695 L 209.699609 32.839626 L 209.475885 32.760162 L 209.288938 32.683754 L 208.866009 32.43925 L 208.617768 32.252815 L 208.317426 31.977747 L 208.121285 31.748525 L 207.882238 31.449007 L 207.627867 31.039462 L 207.486891 30.767451 L 207.413338 30.574903 L 207.352044 30.348737 L 207.324461 30.150077 L 207.296879 29.84139 L 207.309138 29.529647 L 207.345914 29.16289 L 207.434791 28.790021 Z M 207.505279 28.54246 " stroke="#ffffff" stroke-width="0.05" stroke-opacity="1" stroke-miterlimit="4"/><path stroke-linecap="round" transform="matrix(1.274592, 0, 0, 1.278095, -226.175956, -5.784675)" fill-opacity="1" fill="#ffffff" fill-rule="nonzero" stroke-linejoin="round" d="M 203.74182 41.815995 L 202.748855 41.152777 L 202.178819 40.272561 L 201.878478 39.54516 L 201.633302 38.799421 L 201.424902 38.032289 L 201.345219 37.048158 L 201.259407 36.097647 L 201.311508 35.354965 L 201.434096 34.618395 L 201.734437 34.004078 L 201.973484 33.573139 L 202.233984 33.322522 L 202.53739 33.111637 L 202.819343 32.995497 L 203.239208 32.989385 L 203.643749 33.056623 L 203.796984 33.129975 L 205.415149 39.318993 L 204.088132 33.044398 L 204.241367 32.830457 L 204.458961 32.683754 L 204.759302 32.494263 L 205.019802 32.442306 L 205.271108 32.408687 L 205.510155 32.408687 L 205.810497 32.485094 L 206.120032 32.659304 L 206.411179 32.8274 L 206.588932 33.007722 L 206.82185 33.215551 L 207.063961 33.463112 L 207.244779 33.68011 L 207.505279 34.04381 L 207.64932 34.288314 L 207.922079 34.786492 L 208.127415 35.229657 L 208.476791 35.914269 L 208.721968 36.635557 L 208.813909 37.152073 L 208.927303 37.748052 L 208.951821 38.441834 L 208.961015 38.970574 L 208.930368 39.224248 L 208.893591 39.471809 L 208.804715 39.777439 L 208.718903 40.009718 L 208.605509 40.251166 L 208.482921 40.455939 L 208.366462 40.624036 L 208.038538 40.98468 L 207.869979 41.235297 L 207.630932 41.473689 L 207.382691 41.678461 L 207.054767 41.913797 L 206.662485 42.060499 L 206.306979 42.112456 L 206.006638 42.146076 L 205.776785 42.170526 L 205.510155 42.173583 L 205.219008 42.16747 L 204.93399 42.136907 L 204.630585 42.088006 L 204.173943 41.953529 Z M 203.74182 41.815995 " stroke="#ffffff" stroke-width="0.05" stroke-opacity="1" stroke-miterlimit="4"/><path stroke-linecap="round" transform="matrix(1.274592, 0, 0, 1.278095, -226.175956, -5.784675)" fill="none" stroke-linejoin="round" d="M 194.737712 24.089423 L 195.503889 22.179232 L 196.38346 20.519658 L 197.345777 18.866197 L 198.20083 17.594774 L 199.417519 16.381421 L 200.333866 15.754878 L 201.709919 15.330051 L 203.312761 15.119166 L 205.022867 15.281151 L 206.472473 16.07579 L 207.64932 16.998794 L 208.299038 18.099064 L 208.501309 19.287967 L 208.458403 20.690811 L 208.216291 21.928615 L 207.627867 23.105293 L 207.048638 23.765455 L 205.948408 24.569263 L 204.983026 25.308889 L 203.521161 26.351089 L 202.083814 27.475809 L 201.348284 28.502728 L 200.34919 30.290667 L 199.521719 32.301716 L 198.574725 33.759574 L 197.47756 34.731479 L 196.27926 35.575019 L 194.284136 36.247406 L 192.285947 36.568318 L 190.453253 36.663064 L 188.954611 36.494967 L 187.998423 36.213787 L 187.253699 35.724778 L 186.585593 34.82928 L 186.245411 32.372011 L 186.588658 30.929435 L 187.339511 29.227073 L 188.179241 28.016776 L 189.509323 26.610875 L 191.256206 25.446423 L 192.429988 24.84433 L 193.573124 24.434786 Z M 194.737712 24.089423 " stroke="#ffffff" stroke-width="1.9" stroke-opacity="1" stroke-miterlimit="4"/><path stroke-linecap="round" transform="matrix(1.274592, 0, 0, 1.278095, -226.175956, -5.784675)" fill="none" stroke-linejoin="round" d="M 198.786189 17.949305 L 200.465649 18.257992 L 202.408672 18.875366 L 204.134102 19.758638 L 205.945344 21.042286 L 207.578832 22.368723 " stroke="#ffffff" stroke-width="0.4" stroke-opacity="1" stroke-miterlimit="4"/><path stroke-linecap="butt" transform="matrix(1.274592, 0, 0, 1.278095, -226.175956, -5.784675)" fill="none" stroke-linejoin="miter" d="M 196.708318 20.953654 L 199.049754 21.130919 L 200.906966 21.748293 L 202.764178 23.163362 L 204.486543 25.01854 " stroke="#ffffff" stroke-width="0.4" stroke-opacity="1" stroke-miterlimit="4"/><path stroke-linecap="butt" transform="matrix(1.274592, 0, 0, 1.278095, -226.175956, -5.784675)" fill="none" stroke-linejoin="miter" d="M 195.028859 24.798486 L 196.046342 24.798486 L 196.840101 25.01854 L 198.344872 25.770391 L 199.35929 26.433609 L 199.97836 27.050983 L 201.038749 28.200154 " stroke="#ffffff" stroke-width="0.4" stroke-opacity="1" stroke-miterlimit="4"/><path stroke-linecap="butt" transform="matrix(1.274592, 0, 0, 1.278095, -226.175956, -5.784675)" fill="none" stroke-linejoin="miter" d="M 189.680947 27.050983 L 191.139747 27.274093 L 192.950988 27.760046 L 194.587542 28.423264 L 196.000371 29.437958 L 196.974948 30.455707 L 197.459172 31.250347 L 198.430683 33.062736 " stroke="#ffffff" stroke-width="0.4" stroke-opacity="1" stroke-miterlimit="4"/><path stroke-linecap="butt" transform="matrix(1.274592, 0, 0, 1.278095, -226.175956, -5.784675)" fill="none" stroke-linejoin="miter" d="M 187.29354 29.92391 L 189.8587 30.498496 L 191.182653 31.030293 L 192.7763 31.86772 L 194.100253 33.062736 L 194.8082 33.857375 L 196.046342 35.403866 " stroke="#ffffff" stroke-width="0.4" stroke-opacity="1" stroke-miterlimit="4"/><path stroke-linecap="butt" transform="matrix(1.274592, 0, 0, 1.278095, -226.175956, -5.784675)" fill="none" stroke-linejoin="miter" d="M 200.640337 16.445603 L 200.554525 18.169359 L 199.889484 19.673062 L 198.875066 21.748293 L 196.751224 25.01854 L 193.61603 28.068733 L 191.936571 29.615223 L 190.342923 30.764394 L 188.709435 32.090831 L 188.047458 32.665416 L 186.72044 33.591477 L 186.941099 33.417267 " stroke="#ffffff" stroke-width="0.4" stroke-opacity="1" stroke-miterlimit="4"/><path stroke-linecap="butt" transform="matrix(1.274592, 0, 0, 1.278095, -226.175956, -5.784675)" fill="none" stroke-linejoin="miter" d="M 187.912611 35.626976 L 188.663464 35.2266 L 192.022382 32.619572 L 193.879594 30.984448 L 195.381301 29.437958 L 197.370295 27.139616 L 198.740219 25.238594 L 200.156113 23.383416 L 201.305378 21.308185 L 201.789602 20.247647 L 202.454643 18.786733 L 202.984837 16.888767 L 203.205496 15.516486 " stroke="#ffffff" stroke-width="0.4" stroke-opacity="1" stroke-miterlimit="4"/><path stroke-linecap="butt" transform="matrix(1.274592, 0, 0, 1.278095, -226.175956, -5.784675)" fill="none" stroke-linejoin="miter" d="M 205.369179 15.782385 L 204.707202 17.726195 L 203.956349 20.11317 L 203.11662 22.457356 L 201.746696 24.578432 L 200.554525 26.124922 L 199.800607 27.050983 L 198.565531 28.952005 L 197.67983 30.058388 L 197.017854 30.807182 L 195.779712 32.179464 L 194.541571 33.105524 L 190.741335 36.24435 " stroke="#ffffff" stroke-width="0.4" stroke-opacity="1" stroke-miterlimit="4"/><path stroke-linecap="butt" transform="matrix(1.274592, 0, 0, 1.278095, -226.175956, -5.784675)" fill="none" stroke-linejoin="miter" d="M 206.653291 16.711502 L 206.254879 18.743945 L 206.077126 19.935904 L 205.724685 21.219552 L 205.016738 23.163362 L 204.397667 24.887119 " stroke="#ffffff" stroke-width="0.4" stroke-opacity="1" stroke-miterlimit="4"/></svg>
